X:147
T: A A A DER WINTER DER IST DA
N: B0637
O: Europa, Mitteleuropa, Deutschland
R: Kinder -, Jahreszeiten - Lied, Winter
M: 2/4
L: 1/8
K: G
 | B2c2 | d2z
c | BBAA | G2z2 |
ddcc | BBAA |
ddcc | BBAA |
B2c2 | d2z
c | BBAA | G2z2

@@@ Tune index: 2365
